assets/klarna.svg

<svg viewBox="0 0 24 16" fill="none" xmlns="http://www.w3.org/2000/svg">
<path d="M0 2C0 0.895431 0.895431 0 2 0H22C23.1046 0 24 0.895431 24 2V14C24 15.1046 23.1046 16 22 16H2C0.89543 16 0 15.1046 0 14V2Z" fill="#FFCCD9"/>
<path d="M22 9.65121V9.66563C21.9986 9.98238 21.74 10.2381 21.4232 10.2367C21.1065 10.2352 20.8503 9.97662 20.8522 9.65986C20.8536 9.34262 21.1122 9.08739 21.429 9.08883H21.4338C21.7453 9.08787 21.9991 9.33974 22 9.65121Z" fill="#1D1D1B"/>
<path d="M18.7644 9.43308C18.327 9.46336 17.9478 9.13363 17.917 8.69622C17.8867 8.25882 18.2165 7.87957 18.6544 7.84881C18.6712 7.84785 18.6885 7.84689 18.7058 7.84689C19.1432 7.81661 19.5229 8.14634 19.5532 8.58375C19.5835 9.02115 19.2538 9.40088 18.8164 9.43116C18.799 9.4326 18.7817 9.43308 18.7644 9.43308ZM19.5604 7.11051V7.30806C18.8245 6.80865 17.8233 7.00044 17.3239 7.73633C16.8245 8.47223 17.0163 9.47346 17.7522 9.97287C18.2982 10.3435 19.0149 10.3435 19.5604 9.97287V10.1704H20.4684V7.11003L19.5604 7.11051Z" fill="#1D1D1B"/>
<path d="M16.7401 8.22023V10.1587H15.8321V8.54564C15.8321 8.10247 15.6024 7.86214 15.2073 7.86214C15.1756 7.85685 15.1429 7.85685 15.1112 7.86214C14.7583 7.89434 14.4969 8.20389 14.5238 8.55669V10.164H13.6105V7.10365H14.5132V7.45069C14.7353 7.16277 15.0847 7.00271 15.4476 7.02338C15.4745 7.02338 15.5063 7.01809 15.5332 7.01809C16.1984 7.01713 16.7387 7.55499 16.7401 8.22023Z" fill="#1D1D1B"/>
<path d="M13.1882 7.11403V8.00038H13.1776C12.82 8.00038 12.3018 8.26186 12.3018 8.74253V10.1739H11.3722V7.11403H12.296V7.51443C12.5186 7.25439 12.8459 7.10778 13.1882 7.11403Z" fill="#1D1D1B"/>
<path d="M9.19245 9.42672C8.75409 9.42865 8.39695 9.07488 8.39503 8.63603C8.39311 8.19719 8.74736 7.84053 9.18572 7.83861C9.62409 7.83669 9.98122 8.19094 9.98315 8.6293V8.63074C9.96873 9.06238 9.62361 9.4099 9.19245 9.42672ZM9.98843 7.10367V7.30123C9.72455 7.11857 9.41212 7.02004 9.09103 7.01812C8.20036 7.0335 7.49042 7.76795 7.50628 8.65862C7.52118 9.52766 8.22199 10.229 9.09103 10.2439C9.41164 10.2439 9.72407 10.1472 9.98843 9.96603V10.1636H10.8964V7.10319L9.98843 7.10367Z" fill="#1D1D1B"/>
<path d="M7.12819 5.74932H6.17742V10.1714H7.12819V5.74932Z" fill="#1D1D1B"/>
<path d="M3.00412 5.74932H2.00002V10.1714H3.00412V5.74932Z" fill="#1D1D1B"/>
<path d="M5.87688 10.1714H4.63099L3.12507 8.09398L3.51489 7.80029C4.15754 7.31482 4.5339 6.55489 4.52957 5.7493H5.51205C5.51734 6.689 5.14867 7.59217 4.48679 8.25933L5.87688 10.1714Z" fill="#1D1D1B"/>
</svg>

<svg xmlns="http://www.w3.org/2000/svg" width="24" height="16" viewBox="0 0 24 16">
  <path fill="#e6e6e6" d="M0 2a2 2 0 0 1 2-2h20a2 2 0 0 1 2 2v12a2 2 0 0 1-2 2H2a2 2 0 0 1-2-2V2Z" />
  <path fill="#1d1d1b"
    d="M22 9.651v.015a.574.574 0 1 1-.571-.577h.005A.564.564 0 0 1 22 9.65ZM18.764 9.433a.794.794 0 1 1-.058-1.586.794.794 0 1 1 .058 1.586Zm.796-2.322v.197a1.61 1.61 0 1 0 0 2.665v.197h.908V7.11h-.908ZM16.74 8.22v1.939h-.908V8.546c0-.444-.23-.684-.625-.684a.648.648 0 0 0-.684.695v1.607h-.912v-3.06h.902v.347c.222-.288.572-.448.935-.428.027 0 .058-.005.085-.005A1.205 1.205 0 0 1 16.74 8.22ZM13.188 7.114V8h-.01c-.358 0-.876.262-.876.743v1.43h-.93V7.115h.924v.4c.223-.26.55-.406.892-.4ZM9.192 9.427a.794.794 0 1 1 .791-.798v.002a.824.824 0 0 1-.79.796Zm.796-2.323V7.3a1.592 1.592 0 0 0-.897-.283 1.613 1.613 0 0 0 0 3.226c.32 0 .633-.097.897-.278v.198h.908v-3.06h-.908ZM7.128 5.75h-.95v4.421h.95V5.75ZM3.004 5.75H2v4.421h1.004V5.75ZM5.877 10.171H4.63L3.125 8.094l.39-.294A2.553 2.553 0 0 0 4.53 5.75h.982a3.535 3.535 0 0 1-1.025 2.51l1.39 1.911Z" />
</svg>
